rospo-light/64x64/apps/sportstracker.svg

<?xml version="1.0" encoding="UTF-8" standalone="no"?>
<svg
   xmlns:dc="http://purl.org/dc/elements/1.1/"
   xmlns:cc="http://creativecommons.org/ns#"
   xmlns:rdf="http://www.w3.org/1999/02/22-rdf-syntax-ns#"
   xmlns:svg="http://www.w3.org/2000/svg"
   xmlns="http://www.w3.org/2000/svg"
   xmlns:sodipodi="http://sodipodi.sourceforge.net/DTD/sodipodi-0.dtd"
   xmlns:inkscape="http://www.inkscape.org/namespaces/inkscape"
   height="32"
   width="32"
   version="1"
   id="svg18"
   sodipodi:docname="sportstracker.svg"
   inkscape:version="0.92.1 r">
  <metadata
     id="metadata24">
    <rdf:RDF>
      <cc:Work
         rdf:about="">
        <dc:format>image/svg+xml</dc:format>
        <dc:type
           rdf:resource="http://purl.org/dc/dcmitype/StillImage" />
      </cc:Work>
    </rdf:RDF>
  </metadata>
  <defs
     id="defs22" />
  <sodipodi:namedview
     pagecolor="#ffffff"
     bordercolor="#666666"
     borderopacity="1"
     objecttolerance="10"
     gridtolerance="10"
     guidetolerance="10"
     inkscape:pageopacity="0"
     inkscape:pageshadow="2"
     inkscape:window-width="640"
     inkscape:window-height="480"
     id="namedview20"
     showgrid="false"
     inkscape:zoom="9.5"
     inkscape:cx="-4.1052632"
     inkscape:cy="16"
     inkscape:current-layer="svg18" />
  <rect
     style="opacity:1;fill:#3c6290;fill-opacity:1;fill-rule:evenodd;stroke:none;stroke-width:1.03534329;stroke-linecap:round;stroke-linejoin:bevel;stroke-miterlimit:4;stroke-dasharray:none;stroke-dashoffset:0;stroke-opacity:1"
     id="rect4497-6"
     width="28.203388"
     height="28.203388"
     x="1.8983059"
     y="1.8983059"
     ry="5.575182" />
  <g
     id="g4512"
     transform="translate(0.50610497,0.48946244)">
    <path
       id="path8"
       d="m 21.038558,5.0000635 c -0.506572,-0.00397 -1.016425,0.1783416 -1.397436,0.526571 -0.674285,0.616276 -0.838691,1.6635203 -0.388071,2.4718876 0.253287,0.4543866 0.900673,0.8970166 1.430838,0.9782559 1.20847,0.1851773 2.316112,-0.7612193 2.316112,-1.9789779 0,-0.7564823 -0.500173,-1.5289078 -1.187058,-1.8332365 C 21.568352,5.0561493 21.303904,5.002425 21.038558,5.0000635 Z"
       style="fill:#ffffff"
       inkscape:connector-curvature="0" />
    <path
       id="path10"
       d="m 12,13 2.6,-3 h 4.9 l 3,3 2.5,-3"
       style="fill:none;stroke:#ffffff;stroke-width:2;stroke-linecap:round;stroke-linejoin:round"
       inkscape:connector-curvature="0" />
    <path
       id="path12"
       d="m 6.5,18.5 h 5.3 l 2.7,-3 4,3 -1,6"
       style="fill:none;stroke:#ffffff;stroke-width:3;stroke-linecap:round;stroke-linejoin:round"
       inkscape:connector-curvature="0" />
    <rect
       id="rect14"
       x="-4.502501"
       y="19.491192"
       width="7.964735"
       height="3.8285341"
       transform="matrix(0.62845686,-0.77784444,0.79675102,0.60430772,0,0)"
       style="fill:#ffffff" />
  </g>
</svg>

<?xml version="1.0" encoding="UTF-8"?>
<svg xmlns="http://www.w3.org/2000/svg" xmlns:xlink="http://www.w3.org/1999/xlink" width="48pt" height="48pt" viewBox="0 0 48 48" version="1.1">
<g id="surface1">
<path style=" stroke:none;fill-rule:evenodd;fill:rgb(23.529412%,38.431373%,56.470588%);fill-opacity:1;" d="M 11.207031 2.847656 L 36.792969 2.847656 C 41.40625 2.847656 45.152344 6.59375 45.152344 11.207031 L 45.152344 36.792969 C 45.152344 41.40625 41.40625 45.152344 36.792969 45.152344 L 11.207031 45.152344 C 6.59375 45.152344 2.847656 41.40625 2.847656 36.792969 L 2.847656 11.207031 C 2.847656 6.59375 6.59375 2.847656 11.207031 2.847656 Z M 11.207031 2.847656 "/>
<path style=" stroke:none;fill-rule:nonzero;fill:rgb(100%,100%,100%);fill-opacity:1;" d="M 32.316406 8.234375 C 31.558594 8.230469 30.792969 8.5 30.21875 9.027344 C 29.207031 9.949219 28.964844 11.519531 29.640625 12.734375 C 30.019531 13.410156 30.988281 14.078125 31.785156 14.199219 C 33.597656 14.480469 35.261719 13.058594 35.261719 11.230469 C 35.261719 10.09375 34.511719 8.9375 33.480469 8.480469 C 33.109375 8.316406 32.714844 8.238281 32.316406 8.234375 Z M 32.316406 8.234375 "/>
<path style="fill:none;stroke-width:2;stroke-linecap:round;stroke-linejoin:round;stroke:rgb(100%,100%,100%);stroke-opacity:1;stroke-miterlimit:4;" d="M 12.001708 13.000121 L 14.600666 10.000121 L 19.501708 10.000121 L 22.501708 13.000121 L 25.001708 10.000121 " transform="matrix(1.5,0,0,1.5,0.759157,0.734193)"/>
<path style="fill:none;stroke-width:3;stroke-linecap:round;stroke-linejoin:round;stroke:rgb(100%,100%,100%);stroke-opacity:1;stroke-miterlimit:4;" d="M 6.501708 18.500121 L 11.798583 18.500121 L 14.501708 15.500121 L 18.501708 18.500121 L 17.501708 24.500121 " transform="matrix(1.5,0,0,1.5,0.759157,0.734193)"/>
<path style=" stroke:none;fill-rule:nonzero;fill:rgb(100%,100%,100%);fill-opacity:1;" d="M 19.808594 23.65625 L 27.316406 14.363281 L 31.890625 17.832031 L 24.386719 27.125 Z M 19.808594 23.65625 "/>
</g>
</svg>
